X:482
T: Der betrogene Ehemann (191), S. 415f
N: T0370
O: Luxemburg
S: Singendes Volk, Esch-Alzette, 1937 posth.]
N: Boxhorn, hhh Maurer Holzheimer, 1899,
N: mitgeteilt: hhh Heinrich Godefroid (Lehrer)
R: Hochzeits-, Ehestandslied]
M: 2/4
L: 1/16
K: C
G2 | G2G2A2A2 | G2G2E4 | F2z2D2z2 | E4z2
G2 | G2G2A2A2 | G2G2E4 | F2z2D2z2 | E4z2
G2 | D2D2D2D2 | D2B2B2
B2 | d2c2B2A2 | G4z2
F2 | E2E2E2E2 | F2F2F2
F2 | G2G2G2F2 | E4z2
G2 | G2G2G2G2 | A2A2A2
A2 | B2B2e2d2 | c4z4 |
G4F2EG | G4z4 |
G2F2F2F2 | A2G2G2
GG | G2F2F2F2 | A2G2G4 |
E4E2E2 | E2G2G2
GG | G2F2F2F2 | E4z2
G2 | G4E2G2 | G4E2
c2 | B3AG2F2 | E4z2
E2 | EEE2E2EE | E2G2G2
G2 | G2F2F2F2 | A2A2G2
E2 | EEE2E2EE | E2G2G2
G2 | G2F2F2F2 | E4z2

@@@ Tune index: 8536
